X: 69
T: The Storemont Lads
T: Strathspey, G
L: 1/16
M: C|
K: G
|: G3B1 d3B1 G3B1 d1B3| c4c3d1 e3f1g4| (3g2a2b2 e3g1 d3g1 B3e1| d1B3 g3B1 A4A1B3:| 
|: G3B1 g3d1 B1G3 G3B1| e1a3 a3g1 a3b1 a3g1| e1g3 d1g3 B3c1 d3e1| d1B3 g1B3 A4A1B3:| 
D: Wendy MacIsaac, That's What You Get, WMT004
